build/assets/images/icons/blood-drop.svg

<?xml version="1.0" encoding="UTF-8"?>
<svg width="99px" height="128px" viewBox="0 0 99 128" version="1.1" xmlns="http://www.w3.org/2000/svg" xmlns:xlink="http://www.w3.org/1999/xlink">
    <!-- Generator: Sketch 52.4 (67378) - http://www.bohemiancoding.com/sketch -->
    <title>blood-drop</title>
    <desc>Created with Sketch.</desc>
    <g id="Page-1" stroke="none" stroke-width="1" fill="none" fill-rule="evenodd">
        <g id="50-Hospital-Element-Icons" fill="#FFFFFF" fill-rule="nonzero">
            <path d="M44.25,97 L44.25,84.5 L31.75,84.5 C28.9882812,84.5 26.75,82.2617188 26.75,79.5 C26.75,76.7382812 28.9882812,74.5 31.75,74.5 L44.25,74.5 L44.25,62 C44.25,59.2382812 46.4882812,57 49.25,57 C52.0117188,57 54.25,59.2382812 54.25,62 L54.25,74.5 L66.75,74.5 C69.5117188,74.5 71.75,76.7382812 71.75,79.5 C71.75,82.2617188 69.5117188,84.5 66.75,84.5 L54.25,84.5 L54.25,97 C54.25,99.7617188 52.0117188,102 49.25,102 C46.4882812,102 44.25,99.7617188 44.25,97 Z M75.7734375,29.265625 C64.6201172,14.147461 53.6503905,2.12890625 53.1884765,1.6240235 C52.241211,0.58886725 50.9023437,0 49.5,0 C48.0976562,0 46.758789,0.58886725 45.8115235,1.6240235 C45.3496095,2.12890625 34.3798828,14.1484375 23.2265625,29.265625 C7.814453,50.15625 0,66.220703 0,77.0146485 L0,78.381836 C0,105.741211 22.205078,128 49.5,128 C57.9794922,128 66.3486328,125.8125 73.7021485,121.673828 C76.109375,120.319336 76.961914,117.270508 75.607422,114.864258 C74.2529297,112.458008 71.205078,111.604492 68.7978515,112.958985 C62.9384765,116.256836 56.265625,118 49.5,118 C27.7197265,118 10,100.227539 10,78.3808595 L10,77.0146485 C10,68.6572265 17.5371095,53.8320313 31.2236327,35.2705078 C38.248047,25.743164 45.3447265,17.3222655 49.5009765,12.5410155 C53.6435547,17.3076173 60.709961,25.6923828 67.7265625,35.203125 C81.444336,53.796875 89,68.6464845 89,77.0146485 L89,78.381836 C89,84.8447265 87.4990235,91.0058595 84.5390625,96.6914062 C83.263672,99.140625 84.2158202,102.160156 86.665039,103.435547 C89.1132812,104.709961 92.133789,103.758789 93.4091798,101.30957 C97.0664062,94.283203 99,86.3554688 99,78.3808595 L99,77.0146485 C99,66.220703 91.185547,50.15625 75.7734375,29.265625 Z" id="blood-drop"></path>
        </g>
    </g>
</svg>

<svg id="Layer_1" data-name="Layer 1" xmlns="http://www.w3.org/2000/svg" width="99" height="128" viewBox="0 0 99 128">
  <defs>
    <style>
      .cls-1 {
        fill: #fff;
      }
    </style>
  </defs>
  <title>blood-drop</title>
  <path class="cls-1" d="M44.25,97V84.5H31.75a5,5,0,0,1,0-10h12.5V62a5,5,0,0,1,10,0V74.5h12.5a5,5,0,0,1,0,10H54.25V97a5,5,0,0,1-10,0Z"/>
  <path class="cls-1" d="M75.77,29.27C64.62,14.15,53.65,2.13,53.19,1.62a5,5,0,0,0-7.38,0c-.46.51-11.43,12.53-22.58,27.65C7.81,50.16,0,66.22,0,77v1.37a49.48,49.48,0,0,0,73.7,43.29A5,5,0,1,0,68.8,113,39.49,39.49,0,0,1,10,78.38V77c0-8.35,7.54-23.18,21.22-41.74,7-9.53,14.12-18,18.28-22.73,4.14,4.77,11.21,13.15,18.23,22.66C81.44,53.8,89,68.65,89,77v1.37a39.25,39.25,0,0,1-4.46,18.31,5,5,0,1,0,8.87,4.62A49.82,49.82,0,0,0,99,78.38V77C99,66.22,91.19,50.16,75.77,29.27Z"/>
</svg>
